src/assets/filled/Sun.svg

<svg width="24" height="24" viewBox="0 0 24 24"  xmlns="http://www.w3.org/2000/svg">
<path d="M10 3.75H11.25V8.5C11.25 8.91 11.59 9.25 12 9.25C12.41 9.25 12.75 8.91 12.75 8.5V3.75H14C14.41 3.75 14.75 3.41 14.75 3C14.75 2.59 14.41 2.25 14 2.25H10C9.59 2.25 9.25 2.59 9.25 3C9.25 3.41 9.59 3.75 10 3.75Z" />
<path d="M14 20.25H12.75V15.5C12.75 15.09 12.41 14.75 12 14.75C11.59 14.75 11.25 15.09 11.25 15.5V20.25H10C9.59 20.25 9.25 20.59 9.25 21C9.25 21.41 9.59 21.75 10 21.75H14C14.41 21.75 14.75 21.41 14.75 21C14.75 20.59 14.41 20.25 14 20.25Z" />
<path d="M2.83012 9.87994C2.95012 9.94994 3.08012 9.97993 3.20012 9.97993C3.46012 9.97993 3.71012 9.84994 3.85012 9.59994L4.48012 8.51994L8.60012 10.8999C8.71012 10.9699 8.84012 10.9999 8.97012 10.9999C9.23012 10.9999 9.48012 10.8699 9.62012 10.6199C9.83012 10.2699 9.70012 9.80994 9.35012 9.59994L5.23012 7.21993L5.85012 6.13993C6.06012 5.77993 5.93012 5.31993 5.58012 5.11993C5.22012 4.90993 4.76012 5.02993 4.56012 5.38993L2.56012 8.84994C2.35012 9.21994 2.47012 9.66994 2.83012 9.87994Z" />
<path d="M21.1699 14.1199C20.8099 13.9099 20.3499 14.0299 20.1499 14.3899L19.5199 15.4699L15.3999 13.0999C15.0399 12.8899 14.5799 13.0199 14.3799 13.3699C14.1699 13.7299 14.2999 14.1899 14.6499 14.3899L18.7599 16.7699L18.1399 17.8499C17.9299 18.2099 18.0599 18.6699 18.4099 18.8699C18.5299 18.9399 18.6599 18.9699 18.7799 18.9699C19.0399 18.9699 19.2899 18.8399 19.4299 18.5899L21.4299 15.1299C21.6499 14.7799 21.5299 14.3299 21.1699 14.1199Z" />
<path d="M18.7699 7.21994L14.6499 9.59995C14.2899 9.80995 14.1699 10.2699 14.3799 10.6199C14.5199 10.8599 14.7699 10.9999 15.0299 10.9999C15.1599 10.9999 15.2899 10.9699 15.3999 10.8999L19.5099 8.51994L20.1399 9.59995C20.2799 9.83994 20.5299 9.97994 20.7899 9.97994C20.9199 9.97994 21.0499 9.94994 21.1599 9.87994C21.5199 9.66994 21.6399 9.20994 21.4299 8.85994L19.4299 5.39994C19.2199 5.03994 18.7599 4.91994 18.4099 5.12994C18.0499 5.33994 17.9299 5.79994 18.1399 6.14994L18.7699 7.21994Z" />
<path d="M5.23012 16.7799L9.34012 14.3999C9.70012 14.1899 9.82012 13.7299 9.61012 13.3799C9.40012 13.0199 8.94012 12.8999 8.59012 13.1099L4.48012 15.4899L3.85012 14.4099C3.64012 14.0499 3.18012 13.9299 2.83012 14.1399C2.47012 14.3499 2.35012 14.8099 2.56012 15.1599L4.56012 18.6199C4.70012 18.8599 4.95012 18.9999 5.21012 18.9999C5.34012 18.9999 5.47012 18.9699 5.58012 18.8999C5.94012 18.6899 6.06012 18.2299 5.85012 17.8799L5.23012 16.7799Z" />
<path d="M15.5 12C15.5 12.64 15.33 13.23 15.03 13.75C14.42 14.8 13.29 15.5 12 15.5C10.71 15.5 9.58 14.8 8.97 13.75C8.67 13.23 8.5 12.64 8.5 12C8.5 11.36 8.67 10.77 8.97 10.25C9.58 9.2 10.71 8.5 12 8.5C13.29 8.5 14.42 9.2 15.03 10.25C15.33 10.77 15.5 11.36 15.5 12Z" />
</svg>

<?xml version="1.0" encoding="UTF-8"?>
<svg width="24" height="24" viewBox="0 0 24 24" xmlns="http://www.w3.org/2000/svg">
 <path d="m10 3.75h1.25v4.75c0 0.41 0.34 0.75 0.75 0.75s0.75-0.34 0.75-0.75v-4.75h1.25c0.41 0 0.75-0.34 0.75-0.75s-0.34-0.75-0.75-0.75h-4c-0.41 0-0.75 0.34-0.75 0.75s0.34 0.75 0.75 0.75z"/>
 <path d="m14 20.25h-1.25v-4.75c0-0.41-0.34-0.75-0.75-0.75s-0.75 0.34-0.75 0.75v4.75h-1.25c-0.41 0-0.75 0.34-0.75 0.75s0.34 0.75 0.75 0.75h4c0.41 0 0.75-0.34 0.75-0.75s-0.34-0.75-0.75-0.75z"/>
 <path d="m2.8301 9.8799c0.12 0.07 0.25 0.09999 0.37 0.09999 0.26 0 0.51-0.12999 0.65-0.37999l0.63-1.08 4.12 2.38c0.11 0.07 0.24 0.1 0.37 0.1 0.26 0 0.51-0.13 0.65-0.38 0.21-0.35 0.08-0.80996-0.27-1.02l-4.12-2.38 0.62-1.08c0.21-0.36 0.08-0.82-0.27-1.02-0.36-0.21-0.82-0.09-1.02 0.27l-2 3.46c-0.21 0.37-0.09 0.82 0.27 1.03z"/>
 <path d="m21.17 14.12c-0.36-0.21-0.82-0.09-1.02 0.27l-0.63 1.08-4.12-2.37c-0.36-0.21-0.82-0.08-1.02 0.27-0.21 0.36-0.08 0.82 0.27 1.02l4.11 2.38-0.62 1.08c-0.21 0.36-0.08 0.82 0.27 1.02 0.12 0.07 0.25 0.1 0.37 0.1 0.26 0 0.51-0.13 0.65-0.38l2-3.46c0.22-0.35 0.1-0.8-0.26-1.01z"/>
 <path d="m18.77 7.2199-4.12 2.38c-0.36 0.21-0.48 0.66995-0.27 1.02 0.14 0.24 0.39 0.38 0.65 0.38 0.13 0 0.26-0.03 0.37-0.1l4.11-2.38 0.63 1.08c0.14 0.23999 0.39 0.37999 0.65 0.37999 0.13 0 0.26-0.03 0.37-0.1 0.36-0.21 0.48-0.67 0.27-1.02l-2-3.46c-0.21-0.36-0.67-0.48-1.02-0.27-0.36 0.21-0.48 0.67-0.27 1.02l0.63 1.07z"/>
 <path d="m5.2301 16.78 4.11-2.38c0.36-0.21 0.48-0.67 0.27-1.02-0.21-0.36-0.67-0.48-1.02-0.27l-4.11 2.38-0.63-1.08c-0.21-0.36-0.67-0.48-1.02-0.27-0.36 0.21-0.48 0.67-0.27 1.02l2 3.46c0.14 0.24 0.39 0.38 0.65 0.38 0.13 0 0.26-0.03 0.37-0.1 0.36-0.21 0.48-0.67 0.27-1.02l-0.62-1.1z"/>
 <path d="m15.5 12c0 0.64-0.17 1.23-0.47 1.75-0.61 1.05-1.74 1.75-3.03 1.75s-2.42-0.7-3.03-1.75c-0.3-0.52-0.47-1.11-0.47-1.75s0.17-1.23 0.47-1.75c0.61-1.05 1.74-1.75 3.03-1.75s2.42 0.7 3.03 1.75c0.3 0.52 0.47 1.11 0.47 1.75z"/>
</svg>
